!! 00000] TT[WS
!!!OTL: Wugen shapeng naliluo
!!!ARE: Asia, China, Shanxi Hequ
!! Ethnic Group: Han
!! WII, 8
!!!SCT: J0410
!!!YEM: Copyright 1995, estate of Helmut Schaffrath.
**kern
*ICvox
*Ivox
*M2/4
*k[f#c#]
*D:
{8b
8a
4dd
=1
8ff#
4a
16f#
16f#
=2
8e
8dd
8b
8dd
=3
2a}
=4
{8b
8a
4dd
=5
8ff#
4a
16f#
16f#
=6
8e
8dd
8b
8dd
=7
2d}
==
!!!AGN: Shange, Shanqu. Qingge, Aisu
!!!ONB: ESAC (Essen Associative Code) Database: CHINA
!!!AMT: simple duple
!!!AIN: vox
!!!EED: Helmut Schaffrath
!!!EEV: 1.0
*-
